src/static/logos/google-inbox.svg

<?xml version="1.0" encoding="UTF-8"?>
<svg width="256px" height="240px" viewBox="0 0 256 240" version="1.1" xmlns="http://www.w3.org/2000/svg" xmlns:xlink="http://www.w3.org/1999/xlink" preserveAspectRatio="xMidYMid">
    <defs>
        <path d="M0.0220781666,91.4663879 C0.00805862653,87.982602 3.29338858,83.5318776 10.0591368,78.6803234 L116.0116,2.70437809 C120.946117,-0.834044988 128.957886,-0.834409887 133.899175,2.7087341 L239.516538,78.4415072 C246.430406,83.3990858 249.709304,87.9422311 249.548215,91.4663879 L249.651811,91.4663879 L249.651811,102.96502 L0,102.96502 L0,91.4663879 L0.0220781666,91.4663879 L0.0220781666,91.4663879 Z" id="path-1"></path>
        <filter x="-0.6%" y="-1.5%" width="101.2%" height="102.9%" filterUnits="objectBoundingBox" id="filter-2">
            <feOffset dx="0" dy="3" in="SourceAlpha" result="shadowOffsetInner1"></feOffset>
            <feComposite in="shadowOffsetInner1" in2="SourceAlpha" operator="arithmetic" k2="-1" k3="1" result="shadowInnerInner1"></feComposite>
            <feColorMatrix values="0 0 0 0 1   0 0 0 0 1   0 0 0 0 1  0 0 0 0.282269022 0" type="matrix" in="shadowInnerInner1"></feColorMatrix>
        </filter>
        <path d="M0,97.7383688 L219.295825,238.857939 L13.0561451,238.857939 C5.84442109,238.857939 0,233.013128 0,225.803189 L0,97.7383688 Z" id="path-3"></path>
        <filter x="-1.4%" y="-5.7%" width="105.5%" height="108.5%" filterUnits="objectBoundingBox" id="filter-4">
            <feOffset dx="3" dy="-2" in="SourceAlpha" result="shadowOffsetOuter1"></feOffset>
            <feGaussianBlur stdDeviation="1.5" in="shadowOffsetOuter1" result="shadowBlurOuter1"></feGaussianBlur>
            <feColorMatrix values="0 0 0 0 0.181283504   0 0 0 0 0.347530335   0 0 0 0 0.727242827  0 0 0 0.4 0" type="matrix" in="shadowBlurOuter1"></feColorMatrix>
        </filter>
        <path d="M249.651811,97.7383688 L249.651811,225.803189 C249.651811,233.013128 243.804046,238.857939 236.595953,238.857939 L13.0844764,238.857939 L249.651811,97.7383688 Z" id="path-5"></path>
        <filter x="-1.3%" y="-6.4%" width="105.1%" height="108.5%" filterUnits="objectBoundingBox" id="filter-6">
            <feOffset dx="3" dy="-3" in="SourceAlpha" result="shadowOffsetOuter1"></feOffset>
            <feGaussianBlur stdDeviation="1.5" in="shadowOffsetOuter1" result="shadowBlurOuter1"></feGaussianBlur>
            <feColorMatrix values="0 0 0 0 0.181283504   0 0 0 0 0.347530335   0 0 0 0 0.727242827  0 0 0 0.1 0" type="matrix" in="shadowBlurOuter1"></feColorMatrix>
        </filter>
        <filter x="-0.6%" y="-5.3%" width="103.8%" height="106.4%" filterUnits="objectBoundingBox" id="filter-7">
            <feOffset dx="0" dy="3" in="SourceAlpha" result="shadowOffsetInner1"></feOffset>
            <feComposite in="shadowOffsetInner1" in2="SourceAlpha" operator="arithmetic" k2="-1" k3="1" result="shadowInnerInner1"></feComposite>
            <feColorMatrix values="0 0 0 0 1   0 0 0 0 1   0 0 0 0 1  0 0 0 0.129840353 0" type="matrix" in="shadowInnerInner1"></feColorMatrix>
        </filter>
        <filter x="-310.0%" y="-41.3%" width="720.0%" height="182.7%" filterUnits="objectBoundingBox" id="filter-8">
            <feGaussianBlur stdDeviation="15" in="SourceGraphic"></feGaussianBlur>
        </filter>
        <linearGradient x1="33.9688642%" y1="100%" x2="97.7397776%" y2="11.9152677%" id="linearGradient-9">
            <stop stop-color="#335FCF" offset="0%"></stop>
            <stop stop-color="#3558B1" offset="0%"></stop>
            <stop stop-color="#3A4768" offset="40.8985544%"></stop>
            <stop stop-color="#3A4768" offset="83.9913199%"></stop>
            <stop stop-color="#687EB7" offset="84.0114578%"></stop>
            <stop stop-color="#CBCBCB" offset="84.0242347%"></stop>
            <stop stop-color="#CBCBCB" offset="84.0780453%"></stop>
            <stop stop-color="#CBCBCB" offset="84.2718045%"></stop>
            <stop stop-color="#CBCBCB" offset="100%"></stop>
        </linearGradient>
        <polygon id="path-10" points="123.967869 128.70735 76.6485017 81.375215 92.5448517 65.4745758 123.915767 96.9037615 200.818425 19.9803535 216.714775 35.8809927 139.230277 113.386397 137.332457 115.284729"></polygon>
        <filter x="-1.8%" y="-2.3%" width="103.6%" height="104.6%" filterUnits="objectBoundingBox" id="filter-11">
            <feOffset dx="0" dy="5" in="SourceAlpha" result="shadowOffsetInner1"></feOffset>
            <feComposite in="shadowOffsetInner1" in2="SourceAlpha" operator="arithmetic" k2="-1" k3="1" result="shadowInnerInner1"></feComposite>
            <feColorMatrix values="0 0 0 0 1   0 0 0 0 1   0 0 0 0 1  0 0 0 0.5 0" type="matrix" in="shadowInnerInner1"></feColorMatrix>
        </filter>
    </defs>
		<g>
				<g>
						<use fill="#3760C9" fill-rule="evenodd" xlink:href="#path-1"></use>
						<use fill="black" fill-opacity="1" filter="url(#filter-2)" xlink:href="#path-1"></use>
				</g>
				<path d="M0,97.7383688 L249.651811,97.7383688 L249.651811,165.795878 L249.651811,213.528672 C249.651811,219.259406 243.794895,223.904872 236.570024,223.904872 L13.0817864,223.904872 C5.85655066,223.904872 0,219.259289 0,213.528672 L0,165.795878 L0,97.7383688 Z" fill="#3F72DB"></path>
				<g>
						<use fill="black" fill-opacity="1" filter="url(#filter-4)" xlink:href="#path-3"></use>
						<use fill="#36BBF7" fill-rule="evenodd" xlink:href="#path-3"></use>
				</g>
				<g>
						<use fill="black" fill-opacity="1" filter="url(#filter-6)" xlink:href="#path-5"></use>
						<use fill="#96DDFC" fill-rule="evenodd" xlink:href="#path-5"></use>
						<use fill="black" fill-opacity="1" filter="url(#filter-7)" xlink:href="#path-5"></use>
				</g>
				<polygon fill="#203364" filter="url(#filter-8)" transform="translate(160.874498, 83.098782) rotate(45.000000) translate(-160.874498, -83.098782) " points="156.145991 41.2886836 153.615976 137.514341 168.133021 137.514337 167.379792 28.6832236"></polygon>
				<path d="M124.104507,130.02941 L151.389808,156.615527 L249.616582,98.2474883 C249.616582,98.2474883 249.997739,91.241481 248.538286,88.1033084 C247.197505,85.2203079 241.215882,80.183969 241.215882,80.183969 L201.216315,51.4737465 L124.104507,130.02941 Z" fill="#CBCBCB" style="mix-blend-mode: multiply;"></path>
				<polygon fill="url(#linearGradient-9)" points="123.967869 130.252782 76.6485017 82.9206469 92.5448517 67.0200078 123.915767 98.4491934 200.818425 21.5257855 217.139561 36.525464 202.064778 51.6964279 139.230277 114.931829 137.332457 116.830161"></polygon>
				<g>
						<use fill="#E5E5E5" fill-rule="evenodd" xlink:href="#path-10"></use>
						<use fill="black" fill-opacity="1" filter="url(#filter-11)" xlink:href="#path-10"></use>
				</g>
		</g>
</svg>

<svg width="256" height="240" xmlns="http://www.w3.org/2000/svg" xmlns:xlink="http://www.w3.org/1999/xlink" preserveAspectRatio="xMidYMid"><defs><filter x="-.6%" y="-1.5%" width="101.2%" height="102.9%" filterUnits="objectBoundingBox" id="b"><feOffset dy="3" in="SourceAlpha" result="shadowOffsetInner1"/><feComposite in="shadowOffsetInner1" in2="SourceAlpha" operator="arithmetic" k2="-1" k3="1" result="shadowInnerInner1"/><feColorMatrix values="0 0 0 0 1 0 0 0 0 1 0 0 0 0 1 0 0 0 0.282269022 0" in="shadowInnerInner1"/></filter><filter x="-1.4%" y="-5.7%" width="105.5%" height="108.5%" filterUnits="objectBoundingBox" id="c"><feOffset dx="3" dy="-2" in="SourceAlpha" result="shadowOffsetOuter1"/><feGaussianBlur stdDeviation="1.5" in="shadowOffsetOuter1" result="shadowBlurOuter1"/><feColorMatrix values="0 0 0 0 0.181283504 0 0 0 0 0.347530335 0 0 0 0 0.727242827 0 0 0 0.4 0" in="shadowBlurOuter1"/></filter><filter x="-1.3%" y="-6.4%" width="105.1%" height="108.5%" filterUnits="objectBoundingBox" id="e"><feOffset dx="3" dy="-3" in="SourceAlpha" result="shadowOffsetOuter1"/><feGaussianBlur stdDeviation="1.5" in="shadowOffsetOuter1" result="shadowBlurOuter1"/><feColorMatrix values="0 0 0 0 0.181283504 0 0 0 0 0.347530335 0 0 0 0 0.727242827 0 0 0 0.1 0" in="shadowBlurOuter1"/></filter><filter x="-.6%" y="-5.3%" width="103.8%" height="106.4%" filterUnits="objectBoundingBox" id="g"><feOffset dy="3" in="SourceAlpha" result="shadowOffsetInner1"/><feComposite in="shadowOffsetInner1" in2="SourceAlpha" operator="arithmetic" k2="-1" k3="1" result="shadowInnerInner1"/><feColorMatrix values="0 0 0 0 1 0 0 0 0 1 0 0 0 0 1 0 0 0 0.129840353 0" in="shadowInnerInner1"/></filter><filter x="-310%" y="-41.3%" width="720%" height="182.7%" filterUnits="objectBoundingBox" id="h"><feGaussianBlur stdDeviation="15" in="SourceGraphic"/></filter><filter x="-1.8%" y="-2.3%" width="103.6%" height="104.6%" filterUnits="objectBoundingBox" id="k"><feOffset dy="5" in="SourceAlpha" result="shadowOffsetInner1"/><feComposite in="shadowOffsetInner1" in2="SourceAlpha" operator="arithmetic" k2="-1" k3="1" result="shadowInnerInner1"/><feColorMatrix values="0 0 0 0 1 0 0 0 0 1 0 0 0 0 1 0 0 0 0.5 0" in="shadowInnerInner1"/></filter><path d="M.022 91.466C.008 87.983 3.293 83.532 10.06 78.68L116.012 2.704c4.934-3.538 12.946-3.538 17.887.005l105.618 75.733c6.913 4.957 10.192 9.5 10.031 13.024h.104v11.499H0V91.466h.022z" id="a"/><path d="M0 97.738l219.296 141.12H13.056C5.844 238.858 0 233.013 0 225.803V97.738z" id="d"/><path d="M249.652 97.738v128.065c0 7.21-5.848 13.055-13.056 13.055H13.084l236.568-141.12z" id="f"/><path id="j" d="M123.968 128.707l-47.32-47.332 15.897-15.9 31.37 31.429 76.903-76.924 15.897 15.901-77.485 77.505-1.898 1.899z"/><linearGradient x1="33.969%" y1="100%" x2="97.74%" y2="11.915%" id="i"><stop stop-color="#335FCF" offset="0%"/><stop stop-color="#3558B1" offset="0%"/><stop stop-color="#3A4768" offset="40.899%"/><stop stop-color="#3A4768" offset="83.991%"/><stop stop-color="#687EB7" offset="84.011%"/><stop stop-color="#CBCBCB" offset="84.024%"/><stop stop-color="#CBCBCB" offset="84.078%"/><stop stop-color="#CBCBCB" offset="84.272%"/><stop stop-color="#CBCBCB" offset="100%"/></linearGradient></defs><use fill="#3760C9" fill-rule="evenodd" xlink:href="#a"/><use filter="url(#b)" xlink:href="#a"/><path d="M0 97.738h249.652V213.53c0 5.73-5.857 10.376-13.082 10.376H13.082C5.857 223.905 0 219.259 0 213.529V97.738z" fill="#3F72DB"/><use filter="url(#c)" xlink:href="#d"/><use fill="#36BBF7" fill-rule="evenodd" xlink:href="#d"/><use filter="url(#e)" xlink:href="#f"/><use fill="#96DDFC" fill-rule="evenodd" xlink:href="#f"/><use filter="url(#g)" xlink:href="#f"/><path fill="#203364" filter="url(#h)" transform="rotate(45 160.874 83.099)" d="M156.146 41.289l-2.53 96.225h14.517l-.753-108.83z"/><path d="M124.105 130.03l27.285 26.586 98.227-58.369s.38-7.006-1.079-10.144c-1.34-2.883-7.322-7.919-7.322-7.919l-40-28.71-77.111 78.555z" fill="#CBCBCB" style="mix-blend-mode:multiply"/><path fill="url(#i)" d="M123.968 130.253L76.648 82.92l15.898-15.9 31.37 31.43 76.903-76.924 16.322 15-15.075 15.17-62.835 63.236-1.898 1.898z"/><use fill="#E5E5E5" fill-rule="evenodd" xlink:href="#j"/><use filter="url(#k)" xlink:href="#j"/></svg>
